theme/icons/push-chevron-right-r.svg

<svg fill="none" height="24" width="24" xmlns="http://www.w3.org/2000/svg"><g fill="#f4f4f7"><path d="m7.644 14.828 1.414 1.415 4.244-4.243-4.242-4.243-1.416 1.415 2.829 2.828zm6.712 1.172v-8h2v8z"/><path clip-rule="evenodd" d="m1 5a4 4 0 0 1 4-4h14a4 4 0 0 1 4 4v14a4 4 0 0 1 -4 4h-14a4 4 0 0 1 -4-4zm4-2h14a2 2 0 0 1 2 2v14a2 2 0 0 1 -2 2h-14a2 2 0 0 1 -2-2v-14a2 2 0 0 1 2-2z" fill-rule="evenodd"/></g></svg>

<svg fill="none" height="24" width="24" xmlns="http://www.w3.org/2000/svg">
    <g fill="#f4f4f7">
        <path d="m7.644 14.828 1.414 1.415L13.302 12 9.06 7.757 7.644 9.172 10.473 12zM14.356 16V8h2v8z"/>
        <path clip-rule="evenodd" d="M1 5a4 4 0 0 1 4-4h14a4 4 0 0 1 4 4v14a4 4 0 0 1-4 4H5a4 4 0 0 1-4-4zm4-2h14a2 2 0 0 1 2 2v14a2 2 0 0 1-2 2H5a2 2 0 0 1-2-2V5a2 2 0 0 1 2-2z" fill-rule="evenodd"/>
    </g>
</svg>
